src/components/stable/gux-icon/icons/cc-web-session.svg

<svg viewBox="0 0 24 25" fill="none" xmlns="http://www.w3.org/2000/svg">
  <path
    d="M12.0009 0C5.37256 0 0 5.34995 0 11.9556C0 18.5596 5.37082 24.0035 11.9991 24.0035C18.6257 24.0035 24 18.5613 24 11.9539C24.0017 5.34995 18.6274 0 12.0009 0ZM22.3234 11.9609C22.3234 12.5696 22.2607 13.1592 22.1581 13.7401H17.156C17.1873 13.1662 17.2065 12.5887 17.2065 12.0078C17.2065 11.4234 17.1856 10.8425 17.1543 10.2616H22.1703C22.2625 10.8147 22.3234 11.38 22.3234 11.9609ZM1.67838 11.9609C1.67838 11.3817 1.73926 10.8147 1.83144 10.2616H6.84745C6.81615 10.8425 6.79527 11.4234 6.79527 12.0078C6.79527 12.5887 6.81615 13.1662 6.84745 13.7401H1.84361C1.74273 13.1592 1.67838 12.5679 1.67838 11.9609ZM15.5768 12.0078C15.5768 12.6148 15.5576 13.1801 15.5368 13.7401H8.4667C8.44583 13.1801 8.42496 12.6148 8.42496 12.0078C8.42496 11.3973 8.44409 10.8286 8.46496 10.2616H15.5333C15.5559 10.8286 15.5768 11.3973 15.5768 12.0078ZM9.15023 18.9579C8.88064 17.9839 8.69106 16.8186 8.57453 15.4794H15.4237C15.3072 16.8186 15.1159 17.9839 14.8463 18.9579H9.15023ZM14.1975 20.6972C13.6427 21.7094 12.9157 22.2625 12.0009 22.2625C11.0843 22.2625 10.3573 21.7094 9.80419 20.6972H14.1975ZM8.57627 8.52236C8.6928 7.18313 8.88412 6.01783 9.15545 5.04384H14.8446C15.1159 6.01783 15.3072 7.18313 15.4237 8.52236H8.57627ZM9.81462 3.30459C10.3677 2.30625 11.0895 1.75317 12.0009 1.75317C12.9105 1.75317 13.6323 2.30451 14.1854 3.30459H9.81462ZM15.1837 2.18103C16.029 2.45409 16.8238 2.83499 17.5595 3.30459H15.7472C15.575 2.90282 15.3889 2.52192 15.1837 2.18103ZM8.25451 3.30459H6.44395C7.17791 2.83499 7.97275 2.45583 8.81803 2.18103C8.61106 2.52366 8.4267 2.90282 8.25451 3.30459ZM7.64925 5.04384C7.3501 6.11349 7.13095 7.28922 6.99007 8.52236H2.28364C2.74803 7.22139 3.4646 6.04218 4.37945 5.04384H7.64925ZM6.98833 15.4794C7.12747 16.7125 7.34662 17.8883 7.64403 18.9579H4.41771C3.50112 17.9561 2.77933 16.7769 2.30799 15.4794H6.98833ZM8.24755 20.6972C8.41626 21.0937 8.5954 21.4676 8.79542 21.8051C7.97275 21.532 7.19878 21.1563 6.48047 20.6972H8.24755ZM15.7542 20.6972H17.5213C16.803 21.1563 16.029 21.532 15.2046 21.8051C15.4046 21.4676 15.5855 21.0937 15.7542 20.6972ZM16.356 18.9579C16.6534 17.8883 16.8725 16.7125 17.0117 15.4794H21.692C21.2207 16.7786 20.4989 17.9561 19.5823 18.9579H16.356ZM17.0117 8.52236C16.8708 7.28922 16.6516 6.11349 16.3525 5.04384H19.624C20.5389 6.04218 21.2555 7.22139 21.7198 8.52236H17.0117Z"
  />
</svg>

<svg viewBox="0 0 24 25" fill="none" xmlns="http://www.w3.org/2000/svg"><path d="M12 0C5.374 0 0 5.35 0 11.956c0 6.604 5.37 12.047 12 12.047 6.626 0 12-5.442 12-12.05C24.002 5.35 18.627 0 12 0zm10.323 11.96c0 .61-.062 1.2-.165 1.78h-5.002c.031-.574.05-1.151.05-1.732 0-.585-.02-1.165-.052-1.746h5.016c.092.553.153 1.118.153 1.699zm-20.645 0c0-.578.061-1.145.153-1.698h5.016c-.03.58-.052 1.161-.052 1.746 0 .58.021 1.158.052 1.732H1.844a10.345 10.345 0 01-.166-1.78zm13.899.048c0 .607-.02 1.172-.04 1.732h-7.07a45.19 45.19 0 01-.042-1.732c0-.61.02-1.18.04-1.746h7.068c.023.567.044 1.135.044 1.746zm-6.427 6.95c-.27-.974-.459-2.14-.575-3.479h6.849c-.117 1.34-.308 2.505-.578 3.479H9.15zm5.047 1.74c-.554 1.011-1.281 1.564-2.196 1.564-.917 0-1.644-.553-2.197-1.565h4.393zM8.578 8.521c.116-1.339.307-2.504.578-3.478h5.69c.27.974.462 2.14.579 3.478H8.576zm1.238-5.217c.553-.999 1.274-1.552 2.186-1.552.91 0 1.631.552 2.184 1.552h-4.37zm5.369-1.124c.845.273 1.64.654 2.376 1.124h-1.813a9.279 9.279 0 00-.563-1.124zm-6.93 1.124h-1.81A10.28 10.28 0 018.819 2.18a9.15 9.15 0 00-.563 1.124zm-.605 1.74a22.525 22.525 0 00-.659 3.478H2.284a10.244 10.244 0 012.095-3.478h3.27zm-.66 10.435c.138 1.233.358 2.41.655 3.479H4.418a10.43 10.43 0 01-2.11-3.479h4.68zm1.259 5.218c.168.397.347.77.547 1.108a10.356 10.356 0 01-2.315-1.108h1.768zm7.506 0h1.767c-.718.46-1.492.835-2.316 1.108.2-.337.38-.711.55-1.108zm.602-1.74c.297-1.069.516-2.245.656-3.478h4.68a10.413 10.413 0 01-2.11 3.479h-3.226zm.656-10.435a22.496 22.496 0 00-.66-3.478h3.272a10.242 10.242 0 012.096 3.478h-4.708z"/></svg>
